X: 1
T: Miss Cattley's Hornpipe
O: Anon., ca. 1780
R: hornpipe
Z: 2011 John Chambers <jc:trillian.mit.edu>
F: http://home.telepath.com/~hrothgar/telae_tabulae.html 2011-7-15
N:Based on a hymn tune by Thomas Olivers (1725-1799), published in John Wesley's "Select Hymns  with
N:Tunes  Annext"  (1765).   Modified by Martin Madan (1726-1790) and published in his "Collection of
N:Psalm and Hymn Tunes" (1769).  Adapted by an unknown arranger as a dance tune and named after  the
N:singer/dancer Anne Catley (1745-1789) for use in a play (The Golden Pippin, 1773).
M: C
L: 1/8
K: G
[|\
G2 G4 Bd | G2F2 E2D2 | E2 G4 FE | D3C B,2C2 |\
D2 D4 EF | GDGB ADAc | BcdB edcB | A4 DFAd |
G2 G4 Bd | G2F2 E2D2 | E2 G4 FE | D3C B,2C2 |\
D2D3 EDC | B,G,B,D GDGA | B2 B4 A>G | G8 ||
A3B ABAB | A3B cBAG | E3F GFGE | D3C B,A,B,C |\
D3E DCB,A, | G,B,DG B2dc | B2B2 B2A>G | G8 |]
